X:0567
T:March 3d. Regt. of Guards.
N:(ink note, old-fashioned handwriting) London (or Loudon) March
M:C
L:1/8
Q:1/2=76
I: :: ||
Z:Jack Campin * www.campin.me.uk * 2009
K:D
F2 F>F  F2 E2 |D>FA>d TB2A2|B>dA>d G>dF>d|E>D``E>F     E2D>E|
F2 F>F  F2 E2 |D>FA>d TB2A2|B>dA>d G>cd>e|f2 (Te2{de}) d4  :|
a>gf>g  a>ag>f|e>fg>f Tf2e2|D>DD>E F>FF>G|A>A``GF     TF2E2 |
a>gf>g  a>ag>f|e>fg>f Tf2e2|D>DD>E F>FF>G|A>A``G>F    TF2E2 |
f2 f>f Tf2 e2 |d>fA>d TB2A2|B>dA>d G>dF>d|E>D``E>F    TE2D>E|
F2 F>F TF2 E2 |D>FA>d TB2A2|B>dA>d A>cd>e|f2  Te2{de}  d4  |]
<end>
<start>
